Newaita-dark/.DP/24/tabletconnected.svg

<svg xmlns="http://www.w3.org/2000/svg" xmlns:xlink="http://www.w3.org/1999/xlink" width="24px" height="24px" viewBox="0 0 24 24" version="1.1">
<g id="surface1">
<path style=" stroke:none;fill-rule:nonzero;fill:rgb(93.333334%,93.333334%,93.333334%);fill-opacity:1;" d="M 3.96875 4.652344 C 3.421875 4.652344 2.976562 5.09375 2.976562 5.644531 L 2.976562 18.546875 C 2.976562 19.09375 3.421875 19.539062 3.96875 19.539062 L 19.84375 19.539062 C 20.394531 19.539062 20.835938 19.09375 20.835938 18.546875 L 20.835938 5.644531 C 20.835938 5.09375 20.394531 4.652344 19.84375 4.652344 Z M 5.457031 6.636719 L 18.359375 6.636719 C 18.632812 6.636719 18.851562 6.859375 18.851562 7.132812 L 18.851562 16.0625 C 18.851562 16.339844 18.632812 16.5625 18.359375 16.5625 L 5.457031 16.5625 C 5.183594 16.5625 4.960938 16.339844 4.960938 16.0625 L 4.960938 7.132812 C 4.960938 6.859375 5.183594 6.636719 5.457031 6.636719 Z M 10.421875 17.554688 L 13.398438 17.554688 C 13.671875 17.554688 13.890625 17.757812 13.890625 18.007812 L 13.890625 18.089844 C 13.890625 18.34375 13.671875 18.546875 13.398438 18.546875 L 10.421875 18.546875 C 10.144531 18.546875 9.921875 18.34375 9.921875 18.089844 L 9.921875 18.007812 C 9.921875 17.757812 10.144531 17.554688 10.421875 17.554688 Z M 10.421875 17.554688 "/>
</g>
</svg>

<svg xmlns="http://www.w3.org/2000/svg" width="32" height="32" viewBox="0 0 24 24"><path d="M3.969 4.652a.989.989 0 0 0-.992.993v12.898c0 .55.441.992.992.992h15.875c.55 0 .996-.441.996-.992V5.645a.992.992 0 0 0-.996-.993zm1.488 1.985h12.898c.278 0 .497.222.497.496v8.93a.492.492 0 0 1-.497.496H5.457a.494.494 0 0 1-.496-.497v-8.93c0-.273.223-.495.496-.495zm4.961 10.914h2.977c.277 0 .496.203.496.457v.082c0 .25-.22.453-.496.453h-2.977c-.273 0-.496-.203-.496-.453v-.082c0-.254.223-.457.496-.457zm0 0" fill="#bdbdbd"/></svg>
